!!!COM: Scriabin, Alexander
!!!OTL@@FR: Prélude en si bémol majeur
!!!OTL@@EN: Prelude in Bb Major
!!!OPR@@FR: 3 Préludes
!!!OPR@@EN: 3 Preludes
!!!OPS: 35
!!!ONM: 2
!!!ODT: 1903
!!!AGN: Prelude
**kern	**kern	**dynam
*staff2	*staff1	*staff1/2
*Ipiano	*Ipiano	*
*clefF4	*clefF4	*
*k[b-e-]	*k[b-e-]	*
*B-:	*B-:	*
*M4/4	*M4/4	*
*met(c)	*met(c)	*
=1	=1	=1
*	*^	*
2BBB- 2BB-	2D 2F	4r	p
.	.	[4B-	.
2DD 2D	2F#X	8B-L]	.
.	.	8A	.
.	.	8G#X	<
.	.	8AJ	[
=2	=2	=2	=2
1AAA 1AA	1Fn 1A	4.d	>
.	.	8d-X	)
.	.	8f	)
.	.	4Bn	]
.	.	[8c	<
=3	=3	=3	=3
*	*	*^	*
1AAA-X 1AA-X	1F#X	2c]	4rf	.
.	.	.	[4e-	.
.	.	2c-X	8e-L]	.
.	.	.	8d	.
.	.	.	8c#X	<
.	.	.	8dJ	[
*	*clefG2	*	*	*
!!LO:LB:g=original
=4	=4	=4	=4	=4
1GGG 1GG	4G\	1B-	4.fn	>
!	! The print edition has an arrow pointing to the bass clef	!	!	!
.	[4D<	.	.	)
.	.	.	8f-X	] <
.	8D<]	.	8b-	[
.	4D<	.	4f-	>
.	8E-<	.	8e-	]
*	*	*v	*v	*
=5	=5	=5	=5
*^	*	*	*
1GGG-X 1GG-X	2.F-X	1B-	8r	pp
.	.	.	4e-	.
.	.	.	8d-X	.
.	.	.	8cL	.
.	.	.	8d-	.
.	8CL	.	8e-	.
.	8D-XJ	.	8f-XJ	.
=6	=6	=6	=6	=6
1CC-X 1GG-X	2Dn	1c-X	4fn	.
.	.	.	8b-L	<
.	.	.	8a-XJ	.
.	2E-	.	8a--L	.
.	.	.	8g-X	.
.	.	.	8e-	.
.	.	.	8c-J	.
*v	*v	*	*	*
=7	=7	=7	=7
1EE- 1C-X	1G-X	8c-XL	mf
.	.	8B-J	.
.	.	2e-	.
.	.	4B-	.
!!LO:LB:g=original
=8	=8	=8	=8
1FF 1Cn	1F	2B-	>
.	.	2A	]
=9	=9	=9	=9
1CC-X 1GG-X	1E- 1B--	4rcc	pp
.	.	[4d-X	.
.	.	8d-L]	.
.	.	8c-XJ	.
.	.	8B-XL	.
.	.	8c-J	.
=10	=10	=10	=10
*	*	*^	*
1FFF 1FF	4E-\	1A	4.dn	.
!	! The print edition has an arrow pointing to the bass clef	!	!	!
.	[4F<	.	.	.
.	.	.	8d-X	.
.	8F<L]	.	8a	.
.	8E-<J	.	4Bn	.
.	8Dn<L	.	.	.
.	8E-<J	.	8c	.
*	*	*v	*v	*
*	*v	*v	*
=11	=11	=11
*^	*	*
1DD-X 1C-X	4.A--	4r	.
.	.	[4e-	.
.	8G-X	.	.
*	*	*^	*
.	8c-X	4c-X	8e-L]	.
.	4F-X	.	8d-XJ	.
*	*	*v	*v	*
.	.	8cnL	.
.	8Fn	8d-J	.
!!LO:LB:g=original
=12	=12	=12	=12
*	*	*^	*
1GGG 1GG	4r	1Bn	4.en	f
.	[4G	.	.	.
.	.	.	8e-X	.
.	8GL]	.	8bn	.
.	8FJ	.	4d-X	.
.	8EnL	.	.	.
.	8FJ	.	8dn	.
=13	=13	=13	=13	=13
2DDD-X 2DD-X	2F	2c-X 2e-	8r	pp
.	.	.	4b-X	.
.	.	.	8a-X	.
2DD- 2D-X	4c-X	2f	8gL	.
.	.	.	8a-	.
.	8G-XL	.	8b-	.
.	8AJ	.	8cc-XJ	.
=14	=14	=14	=14	=14
1GG-X 1D-X	2An	1g-X	4ccn	.
.	.	.	8ffL	<
.	.	.	8ee-J	.
.	2B-	.	8ee--L	.
.	.	.	8dd-X	.
.	.	.	8b-	.
.	.	.	8g-J	.
*v	*v	*	*	*
!!LO:LB:g=original
=15	=15	=15	=15
1CC 1C 1B-	4ryy	8fL	mf
.	.	[8enJ	.
.	2.e]	2a	.
.	.	4g	.
=16	=16	=16	=16
1FF 1C 1A	2en	2g	> ]
.	2f	2f	p
*	*v	*v	*
=17	=17	=17
*^	*	*
1FFF 1FF	4r	8r	f <
.	.	[8d-X	[
*	*	*^	*
.	[4G	2.d-]	8b-L	>
.	.	.	[8b--J	)
.	8G]	.	8b--]	)
.	4A-X	.	4a-X	)
.	8D-X	.	8f	]
*	*	*v	*v	*
=18	=18	=18	=18
*	*^	*	*
1FFF 1FF	2C/	8rA	2e-	.
!	!	!	!	!LO:HP:b=2
.	.	8C	.	<
.	.	8B-L	.	[
!	!	!	!	!LO:HP:b=2
.	.	[8B--J	.	>
!	! The print edition has an arrow pointing to the treble clef	!	!	!
.	2D-X/	8B--]	2d-X	]
.	.	4A-X	.	.
.	.	8F	.	.
!!LO:LB:g=original
=19	=19	=19	=19	=19
1FF	1A-X>	2E-	6c	.
.	.	.	12c	>
.	.	.	12cL	.
.	.	.	12.Bn	.
.	.	.	24cJk	.
.	.	2D-X	4.f	.
.	.	.	8c	<
*	*v	*v	*	*
=20	=20	=20	=20
*	*	*^	*
1GG	6Dn	1G	2c	[ >
.	12E-	.	.	)
.	12DL	.	.	)
.	12.C#X	.	.	)
.	24DJk	.	.	]
.	4G	.	2Bn	p
.	4GG	.	.	.
*	*	*v	*v	*
=21	=21	=21	=21
1EEE- 1EE-	4r	8r	f
.	.	[8c-X	<
*	*	*^	*
.	[4F	2.c-]	8a-XL	[
.	.	.	[8a--J	.
.	8F]	.	8a--]	.
.	4G-X	.	4g-X	>
.	8C-X	.	8e-	]
*	*	*v	*v	*
!!LO:LB:g=original
=22	=22	=22	=22
*	*^	*	*
1EEE- 1EE-	2BB-/	8rA	2d-X	.
!	!	!	!	!LO:HP:b=2
.	.	8BB-	.	<
.	.	8A-XL	.	[
.	.	[8A--J	.	.
.	2C-X/	8A--]	2c-X	.
!	!	!	!	!LO:HP:b=2
.	.	4G-X	.	>
.	.	8E-	.	]
*	*v	*v	*	*
=23	=23	=23	=23
*	*	*^	*
1EE-	2D-X	1G-X	6B-	.
.	.	.	12B-	>
.	.	.	12B-L	.
.	.	.	12.An	.
.	.	.	24B-Jk	.
.	2C-X	.	4.e-	.
.	.	.	8B-	.
*	*	*v	*v	*
=24	=24	=24	=24
1FF	6Cn	1F 1A	.
.	12D-X	.	.
.	12CL	.	.
.	12.BBn	.	.
.	24CJk	.	.
.	4F	.	.
.	4FF	.	.
*v	*v	*	*
*	*clefF4	*
!!LO:LB:g=original
=25	=25	=25
*	*^	*
2BBB- 2BB-	2Dn 2F	4r	p
.	.	[4B-	.
2DD 2D	2F#X	8B-L]	.
.	.	8A	.
.	.	8G#X	.
.	.	8AJ	.
=26	=26	=26	=26
1AAA 1AA	1Fn 1A	4.d	.
.	.	8d-X	.
.	.	8f	.
.	.	4Bn	.
.	.	[8c	.
=27	=27	=27	=27
*	*	*^	*
1AAA-X 1AA-X	1F#X	2c]	4rf	<
.	.	.	[4e-	.
.	.	2c-X	8e-L]	.
.	.	.	8d	.
.	.	.	8c#X	.
.	.	.	8dJ	.
*	*clefG2	*clefG2	*clefG2	*
=28	=28	=28	=28	=28
1GGG 1GG	4G\	1B-	4.fn	.
!	! The print edition has an arrow pointing to the bass clef	!	!	!
.	[4D<	.	.	.
.	.	.	8f-X	.
.	8D<]	.	8b-	.
.	4D<	.	4f-	.
.	8E-<	.	8e-	.
*	*	*v	*v	*
!!LO:LB:g=original
=29	=29	=29	=29
*^	*	*	*
1GGG-X 1GG-X	2.F-X	1B-	8r	pp
.	.	.	4e-	.
.	.	.	8d-X	.
.	.	.	8cL	.
.	.	.	8d-	.
.	8CL	.	8e-	.
.	8D-XJ	.	8f-XJ	.
=30	=30	=30	=30	=30
1CC-X 1GG-X	2Dn	1c-X	4fn	.
.	.	.	8b-L	<
.	.	.	8a-XJ	.
.	2E-	.	8a--L	.
.	.	.	8g-X	.
.	.	.	8e-	.
.	.	.	8c-J	.
*v	*v	*	*	*
=31	=31	=31	=31
1FF 1E-	4ryy	8B-L	mf
.	.	[8AnJ	.
.	2.A]	2d	.
.	.	4c	.
=32	=32	=32	=32
2.BBB- 2.FF 2.D	2A	2c	>
.	2B-	2B-	]
4AAA-X 4AA-X	.	.	.
!!LO:LB:g=original
=33	=33	=33	=33
*^	*	*	*
1GGG-X 1GG-X	2.F-X	1B-	8r	f
.	.	.	4e-	.
.	.	.	8d-X	.
.	.	.	8cL	.
.	.	.	8d-	.
.	8CL	.	8e-	.
.	8D-XJ	.	8f-XJ	.
=34	=34	=34	=34	=34
1CC-X 1GG-X	2Dn	1c-X	4fn	.
.	.	.	8b-L	.
.	.	.	8a-XJ	.
.	2E-	.	8a--L	>
.	.	.	8g-X	.
.	.	.	8e-	.
.	.	.	8c-J	.
*v	*v	*	*	*
=35	=35	=35	=35
1FF 1E-	4ryy	8B-L	p
.	.	[8AnJ	.
.	2.A]	2d	.
.	.	4c	.
=36	=36	=36	=36
1BBB- 1FF 1D	2A	2c	>
.	2B-	2B-	] pp
*	*v	*v	*
==	==	==
*-	*-	*-
!!!system-decoration: {(*)}
!!!filter: flipper -a
!!!RDF**kern: > = above
!!!RDF**kern: < = below
!!!RDF**dynam: > = dim.
!!!ENC: Bryan Jacob Bell
!!!END: November 2021 to April 2022
!!!PED: Konstantin Igumnov and Yakov Milstein
!!!PTL: A.N. Skryabin: Polnoe sobranie sochinenii dlia fortepiano (Muzgiz)
